X: 58
T:Padraig O'Keefe's polka
M:2/4
L:1/8
R:Polka
K:A
|:A>B ce|fga2|fe ce|L:1/16fafeL:1/8ce            |
|A>B ce|fga2|feL:1/16cdcBL:1/8|A2A          :|
|:a>g fe|fga2|fe ce|L:1/16fafeL:1/8ce            |
|a>g fe|fga2|feL:1/16cdcBL:1/8|A2A2          :|
